img/node.svg

<svg width="110" height="126" viewBox="0 0 110 126" fill="none" xmlns="http://www.w3.org/2000/svg">
<g clip-path="url(#clip0_119_27)">
<path d="M105.652 27.9188L60.3191 1.23792C57.4601 -0.41264 53.7376 -0.41264 50.856 1.23792L5.03841 27.9188C2.08794 29.6392 0 32.8726 0 36.3311V89.6221C0 93.0805 2.14243 96.3149 5.0929 98.0447L17.198 105.014C22.9838 107.902 25.0286 107.902 27.6614 107.902C36.228 107.902 41.1215 102.651 41.1215 93.4931V40.8816C41.1215 40.1386 40.7401 39.033 40.0205 39.033H34.2398C33.5078 39.033 31.8692 40.1386 31.8692 40.8805V93.4921C31.8692 97.5518 28.2464 101.592 21.4757 98.1604L8.96757 90.8527C8.53168 90.613 8.2243 90.1306 8.2243 89.6221V36.3311C8.2243 35.8288 8.79486 35.3245 9.23383 35.0671L54.9034 8.43202C55.33 8.18715 55.9571 8.18715 56.3827 8.43202L101.495 35.0608C101.927 35.3245 101.775 35.8132 101.775 36.3311V89.6221C101.775 90.1306 101.963 90.6255 101.536 90.8704L56.2141 117.521C55.8255 117.758 55.3434 117.758 54.9178 117.521L43.2937 110.488C42.9432 110.282 42.5268 110.208 42.1907 110.399C38.9564 112.257 38.3602 112.504 35.3264 113.57C34.5801 113.833 33.4791 114.291 35.7479 115.58L50.9608 124.702C52.4132 125.552 54.0609 126 55.7381 126C57.4262 126 59.0793 125.556 60.536 124.702L105.651 98.0447C108.602 96.3024 110 93.0805 110 89.6221V36.3311C110 32.8726 108.602 29.6475 105.652 27.9188ZM69.814 81.1775C57.7593 81.1775 55.1038 77.8066 54.2187 71.7306C54.1159 71.0762 53.5679 70.2936 52.911 70.2936H47.0193C46.2905 70.2936 45.7045 71.1898 45.7045 71.9254C45.7045 79.7051 49.8773 89.1313 69.815 89.1313C84.2477 89.1313 92.5223 83.447 92.5223 73.3874C92.5223 63.4132 85.874 60.7956 71.8773 58.9179C57.7294 57.0225 56.2922 56.0648 56.2922 52.7054C56.2922 49.9357 57.5094 46.2417 67.9851 46.2417C77.3454 46.2417 80.7955 48.2778 82.2152 54.6727C82.3365 55.2739 82.8783 55.7053 83.49 55.7053H89.4053C89.7693 55.7053 90.1167 55.5563 90.3717 55.2927C90.6184 55.0093 90.749 54.6539 90.7161 54.2726C89.8001 43.2605 82.5822 38.1285 67.9841 38.1285C54.999 38.1285 47.2527 43.6867 47.2527 53.0034C47.2527 63.1089 54.9599 65.9015 67.4249 67.1509C82.3365 68.6326 83.4962 70.8417 83.4962 73.8146C83.4962 78.9778 79.4066 81.1775 69.814 81.1775Z" fill="#83CD29"/>
</g>
<defs>
<clipPath id="clip0_119_27">
<rect width="110" height="126" fill="white"/>
</clipPath>
</defs>
</svg>

<svg xmlns="http://www.w3.org/2000/svg" width="110" height="126" fill="none"><g clip-path="url(#a)"><path fill="#83CD29" d="M105.652 27.919 60.319 1.238c-2.859-1.65-6.581-1.65-9.463 0L5.038 27.918C2.088 29.64 0 32.874 0 36.332v53.291c0 3.459 2.142 6.693 5.093 8.423l12.105 6.969c5.786 2.888 7.83 2.888 10.463 2.888 8.567 0 13.46-5.251 13.46-14.409V40.882c0-.743-.38-1.849-1.1-1.849H34.24c-.732 0-2.37 1.106-2.37 1.847v52.612c0 4.06-3.624 8.1-10.394 4.668L8.968 90.853a1.441 1.441 0 0 1-.744-1.23V36.33c0-.502.57-1.007 1.01-1.264l45.67-26.635c.426-.245 1.053-.245 1.479 0l45.112 26.629c.432.264.28.752.28 1.27v53.291c0 .509.188 1.004-.239 1.248l-45.322 26.651c-.389.237-.87.237-1.296 0l-11.624-7.033c-.35-.206-.767-.28-1.103-.089-3.235 1.858-3.83 2.105-6.865 3.171-.746.263-1.847.721.422 2.01l15.213 9.122a9.473 9.473 0 0 0 9.575 0l45.115-26.657c2.951-1.743 4.349-4.965 4.349-8.423v-53.29c0-3.46-1.398-6.684-4.348-8.413ZM69.814 81.177c-12.055 0-14.71-3.37-15.595-9.446-.103-.655-.651-1.437-1.308-1.437h-5.892c-.728 0-1.314.896-1.314 1.631 0 7.78 4.172 17.206 24.11 17.206 14.433 0 22.707-5.684 22.707-15.744 0-9.974-6.648-12.591-20.645-14.47-14.148-1.895-15.585-2.852-15.585-6.212 0-2.77 1.217-6.463 11.693-6.463 9.36 0 12.81 2.036 14.23 8.43a1.302 1.302 0 0 0 1.275 1.033h5.915c.364 0 .712-.149.967-.412a1.36 1.36 0 0 0 .344-1.02C89.8 43.26 82.582 38.128 67.984 38.128c-12.985 0-20.731 5.559-20.731 14.875 0 10.106 7.707 12.898 20.172 14.148 14.912 1.482 16.071 3.69 16.071 6.664 0 5.163-4.09 7.362-13.682 7.362Z"/></g><defs><clipPath id="a"><path fill="#fff" d="M0 0h110v126H0z"/></clipPath></defs></svg>
